X: 24911
T: Maid At The Well, The
R: jig
M: 6/8
K: Gmajor
|:GED DED|GFG c2e|dcB AGA|BAG E2F|
GED DED|GFG c2e|dcB AGA|BGF G3:|
|:gdd edd|gdB c2e|dcB AGA|BAG E3|
[1 g2d e2d|gdB c2e|dcB AGA|BGF G3:|
[2 GED DED|GFG c2e|dcB AGA|BGF G3|

